cutejava-front/src/assets/icons/svg/gift.svg

<?xml version="1.0" standalone="no"?><!DOCTYPE svg PUBLIC "-//W3C//DTD SVG 1.1//EN" "http://www.w3.org/Graphics/SVG/1.1/DTD/svg11.dtd"><svg t="1608283048796" class="icon" viewBox="0 0 1024 1024" version="1.1" xmlns="http://www.w3.org/2000/svg" p-id="3256" xmlns:xlink="http://www.w3.org/1999/xlink" width="200" height="200"><defs><style type="text/css"></style></defs><path d="M808 528h-576a72.16 72.16 0 0 1-72-72v-96a72.16 72.16 0 0 1 72-72h576a72.16 72.16 0 0 1 72 72v96a72.16 72.16 0 0 1-72 72z m-576-192a24 24 0 0 0-24 24v96a24 24 0 0 0 24 24h576a24 24 0 0 0 24-24v-96a24 24 0 0 0-24-24z" p-id="3257"></path><path d="M520 320h-144a88.16 88.16 0 0 1-88-88A104.16 104.16 0 0 1 392 128a152.16 152.16 0 0 1 152 152v16a24 24 0 0 1-24 24z m-128-144a56 56 0 0 0-56 56 40 40 0 0 0 40 40H496a104.16 104.16 0 0 0-104-96z" p-id="3258"></path><path d="M664 320h-144a24 24 0 0 1-24-24v-16A152.16 152.16 0 0 1 648 128a104.16 104.16 0 0 1 104 104 88.16 88.16 0 0 1-88 88zM544 272h120a40 40 0 0 0 40-40 56 56 0 0 0-56-56 104.16 104.16 0 0 0-104 96zM760 880h-480a56 56 0 0 1-56-56v-288a56 56 0 0 1 56-56h480a56 56 0 0 1 56 56v288a56 56 0 0 1-56 56z m-480-352a8 8 0 0 0-8 8v288a8 8 0 0 0 8 8h480a8 8 0 0 0 8-8v-288a8 8 0 0 0-8-8z" p-id="3259"></path><path d="M520 880a24 24 0 0 1-24-24v-544a24 24 0 0 1 48 0v544a24 24 0 0 1-24 24z" p-id="3260"></path></svg>

<svg class="icon" viewBox="0 0 1024 1024" xmlns="http://www.w3.org/2000/svg" width="200" height="200"><defs><style/></defs><path d="M808 528H232a72.16 72.16 0 0 1-72-72v-96a72.16 72.16 0 0 1 72-72h576a72.16 72.16 0 0 1 72 72v96a72.16 72.16 0 0 1-72 72zM232 336a24 24 0 0 0-24 24v96a24 24 0 0 0 24 24h576a24 24 0 0 0 24-24v-96a24 24 0 0 0-24-24z"/><path d="M520 320H376a88.16 88.16 0 0 1-88-88 104.16 104.16 0 0 1 104-104 152.16 152.16 0 0 1 152 152v16a24 24 0 0 1-24 24zM392 176a56 56 0 0 0-56 56 40 40 0 0 0 40 40h120a104.16 104.16 0 0 0-104-96z"/><path d="M664 320H520a24 24 0 0 1-24-24v-16a152.16 152.16 0 0 1 152-152 104.16 104.16 0 0 1 104 104 88.16 88.16 0 0 1-88 88zm-120-48h120a40 40 0 0 0 40-40 56 56 0 0 0-56-56 104.16 104.16 0 0 0-104 96zm216 608H280a56 56 0 0 1-56-56V536a56 56 0 0 1 56-56h480a56 56 0 0 1 56 56v288a56 56 0 0 1-56 56zM280 528a8 8 0 0 0-8 8v288a8 8 0 0 0 8 8h480a8 8 0 0 0 8-8V536a8 8 0 0 0-8-8z"/><path d="M520 880a24 24 0 0 1-24-24V312a24 24 0 0 1 48 0v544a24 24 0 0 1-24 24z"/></svg>
